X:1
T:Title
%%score ( 1 2 ) ( 3 4 )
L:1/8
Q:1/4=105
M:4/4
K:C
V:1 treble nm="Grand Piano, Unnamed-000"
V:2 treble 
V:3 bass nm="Choir Pad, Come and Dine"
V:4 bass 
V:1
 [CE][DF] [EG]>[FA] [EG][CE] [EG]2 | [EG][EG] [FA]>[GB] [FA][CF] [FA]2 | %2
w: By~Charles~Brenton~Widmeyer,~1907 * * * * * *||
 [FA][FA] [FB]>[FB] [FB][FA][FG][FA] | [DF][B,G] [CE]6 | [CE][DF] [EG]>[FA] [EG][CE] [EG]2 | %5
w: |||
 [EG][EG] [FA]>[GB] [FA][CF] [FA]2 | [FA][FA] [FB]>[FB] [FB][FA][FG][FG] | [FA][FB] [Ec]6 | %8
w: |||
 [EG][Gc] [FB]>[FB] [FB][FB][FB][DF] | [DF][FA] G->[EG-] [_EG-][EG-] [=EG]2 | %10
w: ||
 [EG][EG] [FA]>[FA] [FA][GA][^FA][FA] | [^FB][Fc] d->[Gd-] [Bd-][Ad-][Gd-][=Fd] | %12
w: ||
 [DG][DG] [Ge]>[Ge] [^Fe][=Fd] [Ec]2 | EE [Ec]>[Ec] [Dc][DB] [CA]2 | %14
w: ||
 [FA][FA] [FB]>[FB] [FB][FA] [FG]2 | [FB][Fd] [Ec]6- | [Ec]2 z2 z4 |] %17
w: |||
V:2
 x8 | x8 | x8 | x8 | x8 | x8 | x8 | x8 | x8 | z2 E2 z4 | x8 | z2 =F2 z4 | x8 | x8 | x8 | x8 | x8 |] %17
V:3
 [C,G,][C,G,] [C,C]>[C,C] [C,C][C,G,] [C,C]2 | [C,C][C,C] [F,C]>[F,C] [F,C][F,A,] [F,C]2 | %2
 [F,D][F,D] [G,D]>[G,D] [G,D][G,C][G,B,][G,B,] | [G,,G,][G,,G,] [C,G,]6 | %4
 [C,G,][C,G,] [C,C]>[C,C] [C,C][C,G,] [C,C]2 | [C,C][C,C] [F,C]>[F,C] [F,C][F,A,] [F,C]2 | %6
 [F,D][F,D] [G,D]>[G,D] [G,D][G,C][G,B,][G,B,] | [G,C][G,D] [C,C]6 | %8
 [C,C][E,C] [G,D]>[G,D] [G,D][G,D][G,D][G,B,] | [G,B,][G,B,] C>G, CA, G,2 | %10
 [C,C][C,C] [F,C]>[F,C] [F,C][E,^C][D,D][D,=C] | [D,B,][D,A,] B,>B, DC B,2 | %12
 [G,B,][G,B,] [C,C]>[C,G,] [C,A,][C,B,] [C,C]2 | E,E, [E,G,]>[E,G,] [E,^G,][E,G,] [F,A,]2 | %14
 [F,C][F,A,] G,>[G,B,] [G,D][G,C]B,A, | G,[G,B,] [C,C]6- | [C,C]2 z2 z4 |] %17
V:4
 x8 | x8 | x8 | x8 | x8 | x8 | x8 | x8 | x8 | z2 C,6 | x8 | z2 G,6 | x8 | x8 | z4 z2 G,2 | x8 | %16
 x8 |] %17

